public/img/tokens/EurgIcon.svg

<svg width="50" height="50" viewBox="0 0 50 50" fill="none" xmlns="http://www.w3.org/2000/svg">
<path fill-rule="evenodd" clip-rule="evenodd" d="M25 50C38.8071 50 50 38.8071 50 25C50 11.1929 38.8071 0 25 0C14.0554 0 4.75341 7.03293 1.36684 16.826H10.1575C13.0498 11.5958 18.6308 8.05222 25.0417 8.05222C31.1717 8.05222 36.5208 11.2924 39.5177 16.1394C39.9164 16.6595 40.1589 17.3089 40.1589 18.0146C40.1589 19.734 38.7569 21.1322 37.0325 21.1322C35.8331 21.1322 34.8031 20.4662 34.2715 19.4856C32.391 16.358 28.9689 14.2708 25.0417 14.2708C19.1044 14.2708 14.2835 19.0747 14.2835 25.0018C14.2835 30.9322 19.1044 35.7361 25.0417 35.7361C29.3177 35.7361 33.0023 33.2546 34.74 29.66H27.0285C25.3108 29.66 23.9154 28.2685 23.9154 26.5457C23.9154 24.8262 25.3108 23.4314 27.0285 23.4314H38.8565V23.438C40.5643 23.448 41.9498 24.8395 41.9498 26.5457C41.9498 26.665 41.9431 26.7842 41.9298 26.9002C40.9862 35.365 33.7864 41.9481 25.0417 41.9481C18.6312 41.9481 13.0504 38.4065 10.1581 33.1778L3.15509 33.1778H1.36814C4.7558 42.9689 14.0568 50 25 50ZM0.0748666 26.9492H8.16484C8.09156 26.3102 8.0539 25.6604 8.0539 25.0018C8.0539 24.3433 8.09155 23.6935 8.16482 23.0546H6.77525L6.77524 23.0546H0.0745756C0.0251634 23.6966 0 24.3453 0 25C0 25.6559 0.0252621 26.306 0.0748666 26.9492Z" fill="#3A5E66"/>
</svg>

<svg width="50" height="50" viewBox="0 0 50 50" fill="none" xmlns="http://www.w3.org/2000/svg"><path fill-rule="evenodd" clip-rule="evenodd" d="M25 50c13.807 0 25-11.193 25-25S38.807 0 25 0C14.056 0 4.754 7.033 1.367 16.826h8.789A16.99 16.99 0 0125.04 8.052c6.13 0 11.479 3.24 14.476 8.087.399.52.641 1.17.641 1.875a3.125 3.125 0 01-3.126 3.118 3.13 3.13 0 01-2.761-1.647 10.74 10.74 0 00-9.23-5.214c-5.937 0-10.758 4.804-10.758 10.73 0 5.931 4.82 10.735 10.758 10.735 4.276 0 7.96-2.481 9.698-6.076h-7.711a3.115 3.115 0 010-6.229h11.828v.007a3.114 3.114 0 013.073 3.462c-.944 8.465-8.143 15.048-16.888 15.048a16.99 16.99 0 01-14.883-8.768H1.37C4.757 42.97 14.057 50 25 50zM.075 26.951h8.088a17.087 17.087 0 010-3.897H.075a25.348 25.348 0 000 3.897z" fill="url(#paint0_linear)"/><defs><linearGradient id="paint0_linear" x1="75" y1="25" x2="25" y2="-25" gradientUnits="userSpaceOnUse"><stop stop-color="#00AEEF"/><stop offset="1" stop-color="#72BF44"/></linearGradient></defs></svg>
